src/main/resources/icons/SpringApiIcons/icons/springJavaConfig.svg

<svg xmlns="http://www.w3.org/2000/svg" width="16" height="16" viewBox="0 0 16 16">
  <g fill="none" fill-rule="evenodd">
    <path fill="#40B6E0" fill-opacity=".6" d="M11.6198,10.3003 C12.9478,10.1789667 14.0681333,9.64363333 14.9808,8.6943 C14.9868,8.5623 14.9998,8.1323 14.9998,8.0003 C14.9998,4.1333 11.8658,1.0003 7.9998,1.0003 C4.1338,1.0003 0.9998,4.1333 0.9998,8.0003 C0.9998,11.7243 3.9098,14.7593 7.5798,14.9783 C7.3648,14.6113 7.2998,14.2453 7.2998,13.9423 C7.2998,12.2693 8.2148,10.6103 11.6198,10.3003 Z"/>
    <path fill="#231F20" fill-opacity=".7" d="M5,4.28253174 C4.53,4.74153174 4.028,4.978 3.1,5 C2.061,5.022 1,4.2794 1,3.0004 C1,1.7124 1.971,1 3.1,1 C3.94833171,1 4.54833171,1.18475342 4.9,1.55426025 L5.5162,0.836730957 C4.8293999,0.270175195 4.28826904,0.0004 3.0982,0.0004 C1.3402,0.0004 0.0002,1.3584 0.0002,3.0004 C0.0002,4.6824 1.3642,6.0004 3.0022,6.0004 C4.29284668,6.0004 5.0232,5.5934 5.6162,4.9814 C5.2054,4.51548783 5,4.28253174 5,4.28253174 Z" transform="translate(5 5)"/>
    <path fill="#62B543" fill-opacity=".7" d="M15.3250988,14.8772067 C14.1360745,16.4601609 11.5978525,15.9290035 9.96981283,16.0026293 C9.96981283,16.0026293 9.68161765,16.0189906 9.39108418,16.0669057 C9.39108418,16.0669057 9.50098417,16.0201592 9.64128202,15.9716597 C10.784125,15.5766516 11.3248563,15.4971825 12.0199152,15.1401559 C13.3246853,14.4716806 14.6241941,13.0161107 14.8878372,11.5038607 C14.3909489,12.9588462 12.8798241,14.2104844 11.5043206,14.7176842 C10.5619867,15.0647771 8.85853691,15.4036894 8.85853691,15.4042738 L8.78955713,15.3674609 C7.63093069,14.8041653 7.5987791,12.2967986 9.70207776,11.4886681 C10.6245361,11.1339788 11.5066589,11.3291456 12.5033582,11.0913226 C13.5666991,10.8388914 14.7978127,10.0395258 15.2982084,9 C15.8599844,10.6641762 16.5339987,13.2673733 15.3250988,14.8772067 Z"/>
  </g>
</svg>

<svg xmlns="http://www.w3.org/2000/svg" width="16" height="16" viewBox="0 0 16 16"><rect id="frame" width="16" height="16" fill="none"/><g fill="none" fill-rule="evenodd"><path fill="#40B6E0" fill-opacity=".6" d="M11.62 10.3c1.328-.121 2.448-.656 3.36-1.606.007-.132.02-.562.02-.694a7 7 0 0 0-7-7 7 7 0 0 0-7 7c0 3.724 2.91 6.76 6.58 6.978a2.034 2.034 0 0 1-.28-1.036c0-1.673.915-3.332 4.32-3.642z"/><path fill="#231F20" fill-opacity=".7" d="M10 9.283c-.47.459-.972.695-1.9.717-1.039.022-2.1-.72-2.1-2 0-1.288.971-2 2.1-2 .848 0 1.448.185 1.8.554l.616-.717C9.83 5.27 9.288 5 8.098 5 6.34 5 5 6.358 5 8c0 1.682 1.364 3 3.002 3 1.29 0 2.021-.407 2.614-1.019L10 9.283z"/><path fill="#62B543" fill-opacity=".7" d="M15.325 14.877c-1.189 1.583-3.727 1.052-5.355 1.126 0 0-.288.016-.579.064 0 0 .11-.047.25-.095 1.143-.395 1.684-.475 2.379-.832 1.305-.668 2.604-2.124 2.868-3.636-.497 1.455-2.008 2.706-3.384 3.214-.942.347-2.645.686-2.645.686l-.07-.037c-1.158-.563-1.19-3.07.913-3.878.923-.355 1.805-.16 2.801-.398 1.064-.252 2.295-1.051 2.795-2.091.562 1.664 1.236 4.267.027 5.877z"/></g></svg>
